X:492
T: Huainian
N: C1911
O: China,Hebei Dingxian
S: IV, 14]
R: Xiaodiao, Dongbing]
M: 2/4
L: 1/16
K: F
F4G2F2 | D4C4 | F4A2E2 | D2C6 |
c4f4 | d2f2c4 | f4d2f2 | c8 |
c4A2c2 | f4d2c2 | c2G2c2AG | F2D2F4 |
c4f2d2 | c2A2A4 | G4A2G2 | F8 |
c3dc2A2 | G2A2c2AG | F4G2A2 | D4C4 | c2c2A2AG | F2D2F2GA | C8- | C8 |
c3d2cA2 | G2A2c2AG | F4G2A2 | D4C4 |
c2c2A2G2 | F2D2F2GA | C8- | C8

@@@ Tune index: 7047
